svgs/minesweeper_privacy_friendly.svg

<svg width="192" height="192" viewBox="0 0 192 192" fill="none" xmlns="http://www.w3.org/2000/svg">
<path d="M151.106 96C151.106 126.434 126.434 151.106 96 151.106M151.106 96C151.106 65.5656 126.434 40.8936 96 40.8936M151.106 96H170M96 151.106C65.5656 151.106 40.8936 126.434 40.8936 96M96 151.106V170M40.8936 96C40.8936 65.5656 65.5656 40.8936 96 40.8936M40.8936 96H22M96 40.8936V22M134.966 57.0339C156.486 78.5543 156.486 113.446 134.966 134.966M134.966 57.0339C113.446 35.5135 78.5543 35.5135 57.0339 57.0339M134.966 57.0339L144.986 47.014M134.966 134.966C113.446 156.486 78.5543 156.486 57.0339 134.966M134.966 134.966L144.986 144.986M57.0339 134.966C35.5135 113.446 35.5135 78.5543 57.0339 57.0339M57.0339 134.966L47.014 144.986M57.0339 57.0339L47.014 47.014" stroke="black" stroke-width="12" stroke-linecap="round" stroke-linejoin="round"/>
<circle cx="83" cy="72" r="5" stroke="black" stroke-width="10" stroke-linejoin="round"/>
<circle cx="64" cy="92" r="3" stroke="black" stroke-width="6" stroke-linejoin="round"/>
</svg>

<svg xmlns="http://www.w3.org/2000/svg" width="192" height="192" fill="none" viewBox="0 0 192 192"><path stroke="#000" stroke-linecap="round" stroke-linejoin="round" stroke-width="12" d="M151.106 96c0 30.434-24.672 55.106-55.106 55.106M151.106 96c0-30.434-24.672-55.106-55.106-55.106M151.106 96H170m-74 55.106c-30.434 0-55.106-24.672-55.106-55.106M96 151.106V170M40.894 96c0-30.434 24.672-55.106 55.106-55.106M40.894 96H22m74-55.106V22m38.966 35.034c21.52 21.52 21.52 56.412 0 77.932m0-77.932c-21.52-21.52-56.412-21.52-77.932 0m77.932 0 10.02-10.02m-10.02 87.952c-21.52 21.52-56.412 21.52-77.932 0m77.932 0 10.02 10.02m-87.952-10.02c-21.52-21.52-21.52-56.412 0-77.932m0 77.932-10.02 10.02m10.02-87.952-10.02-10.02"/><circle cx="83" cy="72" r="5" stroke="#000" stroke-linejoin="round" stroke-width="10"/><circle cx="64" cy="92" r="3" stroke="#000" stroke-linejoin="round" stroke-width="6"/></svg>
